X: 21
M:3/4
L:1/8
K:G
"Andante con Expression"GA|B2 e2 (3fe^d|e E3 GA|B3 {cB}A AG|G4 Bc|
d2 Bd ef|g2|fe f>^d|e2 =dB A>G|E4||

